TCanvas/fit1_7.svg

<svg xmlns="http://www.w3.org/2000/svg" viewBox="0 0 1200 800" preserveAspectRatio="none" width="1200" height="800">
 <path d="M0,0H1200V800H0Z" style="fill: white;"></path>
 <g>
  <g transform="translate(120,80)">
   <path d="M0,0H960V640H0Z" style="fill: white; stroke: black; stroke-width: 1;"></path>
   <g>
    <path d="M0,0v640M96,0v640M192,0v640M288,0v640M384,0v640M480,0v640M576,0v640M672,0v640M768,0v640M864,0v640M960,0v640" style="stroke: black; stroke-width: 1; stroke-dasharray: 1,2;"></path>
    <path d="M0,640h960M0,560h960M0,481h960M0,401h960M0,322h960M0,242h960M0,162h960M0,83h960M0,3h960" style="stroke: black; stroke-width: 1; stroke-dasharray: 1,2;"></path>
   </g>
   <svg x="0" y="0" overflow="hidden" width="960" height="640" viewBox="0 0 960 640">
    <g>
     <path d="M0,383h5v-9h5v3h4v-11h5v10h5v10h5v-5h5v17h4v-16h5v13h5v-4h5v-1h5v-4h4v31h5v-8h5v2h5v-6h5v10h4v-3h5v-22h5v17h5v15h5v-5h4v7h5v9h5v-16h5v39h5v-7h4v6h5v4h5v1h5v16h5v-1h4v-19h5v17h5v10h5v3h5v-8h4v6h5v8h5v-8h5v6h5v-4h4v-12h5v18h5v-7h5v-8h5v13h4v-2h5v-8h5v-12h5v-28h5v16h4v-2h5v-9h5v-17h5v-18h5v-2h4v-20h5v-2h5v4h5v-39h9v-7h5v-23h5v-20h5v-9h5v-53h4v23h5v-40h5v-21h5v-9h5v-43h4v-13h5v-7h5v-22h5v-2h5v-33h4v-4h10v-13h5v-16h5v27h4v-36h5v1h5v16h5v-9h5v15h4v13h5v-30h5v18h5v9h5v18h4v30h5v22h5v-2h5v40h5v-20h4v18h5v25h5v11h5v3h5v10h4v43h5v-4h5v33h5v28h5v15h4v12h5v21h5v10h5v23h5v32h4v-3h5v28h5v6h5v8h5v18h4v16h5v12h5v12h5v16h5v14h4v3h5v9h5v2h5v10h5v5h4v13h5v-9h5v9h10v-2h4v8h5v-1h5v-8h5v5h5v1h4v-2h5v-1h5v7h5v-4h5v6h4v-9h5v7h5v3h5v-6h5v-5h4v3h5v4h5v-5h5v2h5v2h4v1h5v7h5v-11h5v1h5v-3h4v2h5v5h15v-2h9v7h5v3h5v-7h5v8h4v-3h5v2h5v2h5v4h5v-4h4v1h5v6h5v-4h5v9h5v-3h4v-1h5v4h5v-1h10v3h4v4h5v-1h5v-2h5v4h5v2h4v2h5v-1h5v-1h5v-2h5v-2h4v-4h5v2h5v-2h10v1h4v-6h5v-2h5L960,643H0Z" style="stroke-linejoin: miter; stroke: #00009a; stroke-width: 1; fill: #c08378;"></path>
    </g>
   </svg>
   <g>
    <g transform="translate(0,640)">
     <path d="M0,0h960M0,-24v24m19,-12v12m19,-12v12m20,-12v12m19,-12v12m19,-24v24m19,-12v12m19,-12v12m20,-12v12m19,-12v12m19,-24v24m19,-12v12m19,-12v12m20,-12v12m19,-12v12m19,-24v24m19,-12v12m19,-12v12m20,-12v12m19,-12v12m19,-24v24m19,-12v12m19,-12v12m20,-12v12m19,-12v12m19,-24v24m19,-12v12m19,-12v12m20,-12v12m19,-12v12m19,-24v24m19,-12v12m19,-12v12m20,-12v12m19,-12v12m19,-24v24m19,-12v12m19,-12v12m20,-12v12m19,-12v12m19,-24v24m19,-12v12m19,-12v12m20,-12v12m19,-12v12m19,-24v24m19,-12v12m19,-12v12m20,-12v12m19,-12v12m19,-24v24" style="stroke: black; stroke-width: 1;"></path>
     <g font-family="Arial" font-size="28" space="preserve" fill="black" text-anchor="middle">
      <text dy=".8em" transform="translate(0,6)">
       0
      </text>
      <text dy=".8em" transform="translate(96,6)">
       1
      </text>
      <text dy=".8em" transform="translate(192,6)">
       2
      </text>
      <text dy=".8em" transform="translate(288,6)">
       3
      </text>
      <text dy=".8em" transform="translate(384,6)">
       4
      </text>
      <text dy=".8em" transform="translate(480,6)">
       5
      </text>
      <text dy=".8em" transform="translate(576,6)">
       6
      </text>
      <text dy=".8em" transform="translate(672,6)">
       7
      </text>
      <text dy=".8em" transform="translate(768,6)">
       8
      </text>
      <text dy=".8em" transform="translate(864,6)">
       9
      </text>
      <text dy=".8em" transform="translate(960,6)">
       10
      </text>
     </g>
    </g>
    <g>
     <path d="M0,0v640M36,640h-36m18,-20h-18m18,-20h-18m18,-20h-18m36,-20h-36m18,-20h-18m18,-19h-18m18,-20h-18m36,-20h-36m18,-20h-18m18,-20h-18m18,-20h-18m36,-20h-36m18,-20h-18m18,-20h-18m18,-20h-18m36,-19h-36m18,-20h-18m18,-20h-18m18,-20h-18m36,-20h-36m18,-20h-18m18,-20h-18m18,-20h-18m36,-20h-36m18,-20h-18m18,-20h-18m18,-19h-18m36,-20h-36m18,-20h-18m18,-20h-18m18,-20h-18m36,-20h-36" style="stroke: black; stroke-width: 1;"></path>
     <g font-family="Arial" font-size="28" space="preserve" fill="black" text-anchor="end">
      <text dy=".4em" transform="translate(-4,640)">
       0
      </text>
      <text dy=".4em" transform="translate(-4,560)">
       200
      </text>
      <text dy=".4em" transform="translate(-4,481)">
       400
      </text>
      <text dy=".4em" transform="translate(-4,401)">
       600
      </text>
      <text dy=".4em" transform="translate(-4,322)">
       800
      </text>
      <text dy=".4em" transform="translate(-4,242)">
       1000
      </text>
      <text dy=".4em" transform="translate(-4,162)">
       1200
      </text>
      <text dy=".4em" transform="translate(-4,83)">
       1400
      </text>
      <text dy=".4em" transform="translate(-4,3)">
       1600
      </text>
     </g>
    </g>
   </g>
  </g>
  <g transform="translate(936,52)" font-family="Arial" font-size="23" space="preserve" fill="black">
   <path d="M0,0H240V128H0Z" style="fill: white; stroke: black; stroke-width: 1;"></path>
   <text text-anchor="middle" dy=".4em" transform="translate(120,16)">
    h1f
   </text>
   <text text-anchor="start" dy=".4em" transform="translate(12,48)">
    Entries
   </text>
   <text text-anchor="end" dy=".4em" transform="translate(228,48)">
    100000
   </text>
   <text text-anchor="start" dy=".4em" transform="translate(12,80)">
    Mean
   </text>
   <text text-anchor="end" dy=".4em" transform="translate(228,80)">
    3.627
   </text>
   <text text-anchor="start" dy=".4em" transform="translate(12,112)">
    Std Dev
   </text>
   <text text-anchor="end" dy=".4em" transform="translate(228,112)">
    1.834
   </text>
   <path d="M0,32h240" style="stroke: black; stroke-width: 1;"></path>
  </g>
  <g transform="translate(371,4)" font-family="Arial" font-size="36" space="preserve">
   <text fill="black" text-anchor="middle" dy=".4em" transform="translate(229,22)">
    Test random numbers
   </text>
  </g>
 </g>
</svg>

<svg xmlns="http://www.w3.org/2000/svg" viewBox="0 0 1200 800" preserveAspectRatio="none" width="1200" height="800">
 <path d="M0,0H1200V800H0Z" style="fill: white;"></path>
 <g>
  <g transform="translate(120,80)">
   <path d="M0,0H960V640H0Z" style="fill: white; stroke: black; stroke-width: 1;"></path>
   <g>
    <path d="M0,0v640M96,0v640M192,0v640M288,0v640M384,0v640M480,0v640M576,0v640M672,0v640M768,0v640M864,0v640M960,0v640" style="stroke: black; stroke-width: 1; stroke-dasharray: 1,2;"></path>
    <path d="M0,640h960M0,560h960M0,481h960M0,401h960M0,322h960M0,242h960M0,162h960M0,83h960M0,3h960" style="stroke: black; stroke-width: 1; stroke-dasharray: 1,2;"></path>
   </g>
   <svg x="0" y="0" overflow="hidden" width="960" height="640" viewBox="0 0 960 640">
    <g>
     <path d="M0,383h5v-9h5v3h4v-11h5v10h5v10h5v-5h5v17h4v-16h5v13h5v-4h5v-1h5v-4h4v31h5v-8h5v2h5v-6h5v10h4v-3h5v-22h5v17h5v15h5v-5h4v7h5v9h5v-16h5v39h5v-7h4v6h5v4h5v1h5v16h5v-1h4v-19h5v17h5v10h5v3h5v-8h4v6h5v8h5v-8h5v6h5v-4h4v-12h5v18h5v-7h5v-8h5v13h4v-2h5v-8h5v-12h5v-28h5v16h4v-2h5v-9h5v-17h5v-18h5v-2h4v-20h5v-2h5v4h5v-39h9v-7h5v-23h5v-20h5v-9h5v-53h4v23h5v-40h5v-21h5v-9h5v-43h4v-13h5v-7h5v-22h5v-2h5v-33h4v-4h10v-13h5v-16h5v27h4v-36h5v1h5v16h5v-9h5v15h4v13h5v-30h5v18h5v9h5v18h4v30h5v22h5v-2h5v40h5v-20h4v18h5v25h5v11h5v3h5v10h4v43h5v-4h5v33h5v28h5v15h4v12h5v21h5v10h5v23h5v32h4v-3h5v28h5v6h5v8h5v18h4v16h5v12h5v12h5v16h5v14h4v3h5v9h5v2h5v10h5v5h4v13h5v-9h5v9h10v-2h4v8h5v-1h5v-8h5v5h5v1h4v-2h5v-1h5v7h5v-4h5v6h4v-9h5v7h5v3h5v-6h5v-5h4v3h5v4h5v-5h5v2h5v2h4v1h5v7h5v-11h5v1h5v-3h4v2h5v5h15v-2h9v7h5v3h5v-7h5v8h4v-3h5v2h5v2h5v4h5v-4h4v1h5v6h5v-4h5v9h5v-3h4v-1h5v4h5v-1h10v3h4v4h5v-1h5v-2h5v4h5v2h4v2h5v-1h5v-1h5v-2h5v-2h4v-4h5v2h5v-2h10v1h4v-6h5v-2h5L960,643H0Z" style="stroke-linejoin: miter; stroke: #00009a; stroke-width: 1; fill: #c08378;"></path>
    </g>
   </svg>
   <g>
    <g transform="translate(0,640)">
     <path d="M0,0h960M0,-24V0M19,-12V0M38,-12V0M58,-12V0M77,-12V0M96,-24V0M115,-12V0M134,-12V0M154,-12V0M173,-12V0M192,-24V0M211,-12V0M230,-12V0M250,-12V0M269,-12V0M288,-24V0M307,-12V0M326,-12V0M346,-12V0M365,-12V0M384,-24V0M403,-12V0M422,-12V0M442,-12V0M461,-12V0M480,-24V0M499,-12V0M518,-12V0M538,-12V0M557,-12V0M576,-24V0M595,-12V0M614,-12V0M634,-12V0M653,-12V0M672,-24V0M691,-12V0M710,-12V0M730,-12V0M749,-12V0M768,-24V0M787,-12V0M806,-12V0M826,-12V0M845,-12V0M864,-24V0M883,-12V0M902,-12V0M922,-12V0M941,-12V0M960,-24V0" style="stroke: black; stroke-width: 1;"></path>
     <g font-family="Arial" font-size="28" space="preserve" fill="black" text-anchor="middle">
      <text dy=".8em" transform="translate(0,6)">
       0
      </text>
      <text dy=".8em" transform="translate(96,6)">
       1
      </text>
      <text dy=".8em" transform="translate(192,6)">
       2
      </text>
      <text dy=".8em" transform="translate(288,6)">
       3
      </text>
      <text dy=".8em" transform="translate(384,6)">
       4
      </text>
      <text dy=".8em" transform="translate(480,6)">
       5
      </text>
      <text dy=".8em" transform="translate(576,6)">
       6
      </text>
      <text dy=".8em" transform="translate(672,6)">
       7
      </text>
      <text dy=".8em" transform="translate(768,6)">
       8
      </text>
      <text dy=".8em" transform="translate(864,6)">
       9
      </text>
      <text dy=".8em" transform="translate(960,6)">
       10
      </text>
     </g>
    </g>
    <g>
     <path d="M0,0v640M36,640H0M18,620H0M18,600H0M18,580H0M36,560H0M18,540H0M18,521H0M18,501H0M36,481H0M18,461H0M18,441H0M18,421H0M36,401H0M18,381H0M18,361H0M18,341H0M36,322H0M18,302H0M18,282H0M18,262H0M36,242H0M18,222H0M18,202H0M18,182H0M36,162H0M18,142H0M18,122H0M18,103H0M36,83H0M18,63H0M18,43H0M18,23H0M36,3H0" style="stroke: black; stroke-width: 1;"></path>
     <g font-family="Arial" font-size="28" space="preserve" fill="black" text-anchor="end">
      <text dy=".4em" transform="translate(-4,640)">
       0
      </text>
      <text dy=".4em" transform="translate(-4,560)">
       200
      </text>
      <text dy=".4em" transform="translate(-4,481)">
       400
      </text>
      <text dy=".4em" transform="translate(-4,401)">
       600
      </text>
      <text dy=".4em" transform="translate(-4,322)">
       800
      </text>
      <text dy=".4em" transform="translate(-4,242)">
       1000
      </text>
      <text dy=".4em" transform="translate(-4,162)">
       1200
      </text>
      <text dy=".4em" transform="translate(-4,83)">
       1400
      </text>
      <text dy=".4em" transform="translate(-4,3)">
       1600
      </text>
     </g>
    </g>
   </g>
  </g>
  <g transform="translate(936,52)" font-family="Arial" font-size="23" space="preserve" fill="black">
   <path d="M0,0H240V128H0Z" style="fill: white; stroke: black; stroke-width: 1;"></path>
   <text text-anchor="middle" dy=".4em" transform="translate(120,16)">
    h1f
   </text>
   <text text-anchor="start" dy=".4em" transform="translate(12,48)">
    Entries
   </text>
   <text text-anchor="end" dy=".4em" transform="translate(228,48)">
    100000
   </text>
   <text text-anchor="start" dy=".4em" transform="translate(12,80)">
    Mean
   </text>
   <text text-anchor="end" dy=".4em" transform="translate(228,80)">
    3.627
   </text>
   <text text-anchor="start" dy=".4em" transform="translate(12,112)">
    Std Dev
   </text>
   <text text-anchor="end" dy=".4em" transform="translate(228,112)">
    1.834
   </text>
   <path d="M0,32h240" style="stroke: black; stroke-width: 1;"></path>
  </g>
  <g transform="translate(371,4)" font-family="Arial" font-size="36" space="preserve">
   <text fill="black" text-anchor="middle" dy=".4em" transform="translate(229,22)">
    Test random numbers
   </text>
  </g>
 </g>
</svg>
